public/images/logo.svg

<svg xmlns="http://www.w3.org/2000/svg" xml:space="preserve" style="fill-rule:evenodd;clip-rule:evenodd;stroke-linejoin:round;stroke-miterlimit:2" viewBox="0 0 2526 1024"><path d="M640 1024h320.002c35.322 0 63.998-28.677 63.998-64V64c0-35.323-28.676-64-63.998-64H128v1024h128V0h64v1024h256V0h64zM64 0h.002zC28.679 0 .002 28.677.002 64v896c0 35.323 28.677 64 63.998 64h.002H64z" style="fill:#fff"/><path d="M1055.62 246.547c4.87 0 8.61.925 11.23 2.775 2.61 1.85 3.92 4.609 3.92 8.275q0 3-1.08 5.125c-.71 1.417-1.75 2.567-3.09 3.45-1.35.884-3 1.525-4.93 1.925s-4.12.6-6.55.6h-3.85v12.85h-4.85v-34.15c1.37-.333 2.89-.558 4.58-.675q2.52-.175 4.62-.175m.4 4.25c-2.07 0-3.65.05-4.75.15v13.6h3.65q2.505 0 4.5-.325c1.33-.216 2.46-.583 3.38-1.1a5.45 5.45 0 0 0 2.12-2.125q.75-1.35.75-3.45 0-2-.78-3.3a5.8 5.8 0 0 0-2.09-2.075c-.89-.516-1.91-.875-3.08-1.075s-2.4-.3-3.7-.3m28.35 27.4c1.1 0 2.07-.025 2.93-.075.84-.05 1.55-.141 2.12-.275v-7.75q-.495-.25-1.62-.425t-2.73-.175q-1.05 0-2.22.15c-.79.1-1.5.309-2.16.625a4.65 4.65 0 0 0-1.62 1.3c-.43.55-.65 1.275-.65 2.175 0 1.667.53 2.825 1.6 3.475q1.605.975 4.35.975m-.4-23.3c1.87 0 3.44.242 4.72.725 1.29.484 2.32 1.167 3.11 2.05.78.884 1.34 1.934 1.67 3.15.33 1.217.5 2.559.5 4.025v16.25c-.4.067-.96.159-1.67.275q-1.08.175-2.43.325c-.9.1-1.87.192-2.93.275q-1.575.125-3.12.125-2.205 0-4.05-.45c-1.23-.3-2.3-.775-3.2-1.425q-1.35-.975-2.1-2.575t-.75-3.85c0-1.433.29-2.666.88-3.7a6.94 6.94 0 0 1 2.37-2.5c1-.633 2.17-1.1 3.5-1.4q1.995-.45 4.2-.45c.47 0 .95.025 1.45.075s.98.117 1.43.2q.675.126 1.17.225c.33.067.57.117.7.15v-1.3c0-.766-.08-1.525-.25-2.275a5.3 5.3 0 0 0-.9-2q-.645-.875-1.77-1.4c-.75-.35-1.73-.525-2.93-.525-1.53 0-2.88.109-4.02.325-1.16.217-2.01.442-2.58.675l-.55-3.85q.9-.4 3-.775c1.4-.25 2.92-.375 4.55-.375m38.4 25.9q-1.605.4-4.23.85c-1.75.3-3.77.45-6.07.45-2 0-3.68-.291-5.05-.875q-2.055-.875-3.3-2.475t-1.8-3.775c-.37-1.45-.55-3.058-.55-4.825v-14.6h4.65v13.6q0 4.75 1.5 6.8c1 1.367 2.68 2.05 5.05 2.05.5 0 1.02-.016 1.55-.05q.795-.05 1.5-.125c.47-.05.89-.1 1.27-.15.39-.05.66-.108.83-.175v-21.95h4.65zm15.8 1.25c-2.87-.066-4.9-.683-6.1-1.85q-1.8-1.75-1.8-5.45v-31.2l4.65-.8v31.25c0 .767.07 1.4.2 1.9s.35.9.65 1.2q.45.45 1.2.675c.5.15 1.12.275 1.85.375zm-83.7 47.45c5.07 0 7.6-1.733 7.6-5.2 0-1.066-.22-1.975-.68-2.725a6.5 6.5 0 0 0-1.82-1.95c-.77-.55-1.64-1.025-2.63-1.425q-1.47-.6-3.12-1.2a31 31 0 0 1-3.6-1.475c-1.13-.55-2.12-1.2-2.95-1.95a8.3 8.3 0 0 1-1.97-2.675c-.49-1.033-.73-2.283-.73-3.75 0-3.033 1.03-5.4 3.1-7.1q3.105-2.55 8.55-2.55c2.1 0 4.01.225 5.72.675q2.58.675 3.78 1.475l-1.55 3.95q-1.05-.65-3.12-1.275-2.085-.625-4.83-.625c-.93 0-1.8.1-2.6.3q-1.2.3-2.1.9c-.6.4-1.08.909-1.42 1.525-.35.617-.53 1.342-.53 2.175 0 .934.18 1.717.55 2.35.37.634.88 1.192 1.55 1.675s1.44.925 2.33 1.325c.88.4 1.85.8 2.92 1.2 1.5.6 2.88 1.2 4.13 1.8s2.33 1.317 3.25 2.15a8.7 8.7 0 0 1 2.12 2.975q.75 1.725.75 4.175c0 3.034-1.11 5.367-3.32 7-2.22 1.634-5.35 2.45-9.38 2.45-1.37 0-2.62-.091-3.78-.275-1.14-.183-2.17-.4-3.07-.65s-1.68-.516-2.32-.8c-.66-.283-1.16-.525-1.53-.725l1.45-4c.77.434 1.93.917 3.5 1.45 1.57.534 3.48.8 5.75.8m29.55 4.05q-3.15 0-5.52-1c-1.59-.666-2.92-1.6-4-2.8q-1.635-1.8-2.43-4.275c-.53-1.65-.8-3.475-.8-5.475q0-3 .87-5.5c.59-1.666 1.41-3.108 2.48-4.325q1.605-1.824 3.93-2.85c1.55-.683 3.27-1.025 5.17-1.025 1.17 0 2.33.1 3.5.3s2.28.517 3.35.95l-1.05 3.95c-.7-.333-1.51-.6-2.42-.8-.92-.2-1.9-.3-2.93-.3-2.6 0-4.59.817-5.98 2.45q-2.07 2.45-2.07 7.15 0 2.1.48 3.85.465 1.75 1.5 3c.68.834 1.55 1.475 2.62 1.925q1.605.675 3.9.675c1.23 0 2.35-.116 3.35-.35s1.78-.483 2.35-.75l.65 3.9c-.27.167-.65.325-1.15.475s-1.07.284-1.7.4-1.31.217-2.02.3c-.72.084-1.41.125-2.08.125m34.25-13.6q0 3.1-.9 5.6t-2.52 4.3a11.2 11.2 0 0 1-3.88 2.775c-1.5.65-3.13.975-4.9.975s-3.4-.325-4.9-.975q-2.25-.975-3.87-2.775c-1.09-1.2-1.93-2.633-2.53-4.3q-.9-2.5-.9-5.6 0-3.05.9-5.575c.6-1.683 1.44-3.125 2.53-4.325q1.62-1.8 3.87-2.775c1.5-.65 3.13-.975 4.9-.975s3.4.325 4.9.975 2.79 1.575 3.88 2.775q1.62 1.8 2.52 4.325t.9 5.575m-4.85 0q0-4.4-1.98-6.975-1.965-2.574-5.37-2.575c-2.27 0-4.06.859-5.38 2.575-1.31 1.717-1.97 4.042-1.97 6.975 0 2.934.66 5.259 1.97 6.975 1.32 1.717 3.11 2.575 5.38 2.575q3.405 0 5.37-2.575 1.98-2.574 1.98-6.975m15.75-13h9.85v3.9h-9.85v12q0 1.95.3 3.225t.9 2q.6.726 1.5 1.025.9.3 2.1.3c1.4 0 2.53-.158 3.38-.475.84-.316 1.44-.541 1.77-.675l.9 3.85c-.47.234-1.28.525-2.45.875s-2.5.525-4 .525c-1.77 0-3.22-.225-4.38-.675-1.14-.45-2.07-1.125-2.77-2.025s-1.19-2.008-1.48-3.325q-.42-1.974-.42-4.575v-23.2l4.65-.8zm20.1 0h9.85v3.9h-9.85v12q0 1.95.3 3.225t.9 2q.6.726 1.5 1.025.9.3 2.1.3c1.4 0 2.53-.158 3.37-.475.86-.316 1.45-.541 1.78-.675l.9 3.85c-.47.234-1.28.525-2.45.875s-2.5.525-4 .525c-1.77 0-3.23-.225-4.37-.675-1.16-.45-2.08-1.125-2.78-2.025q-1.05-1.35-1.47-3.325c-.29-1.316-.43-2.841-.43-4.575v-23.2l4.65-.8z" style="fill:#fff;fill-rule:nonzero" transform="translate(-10535.7 -2733.07)scale(11.2589)"/></svg>

<?xml version="1.0" encoding="UTF-8" standalone="no"?>
<!DOCTYPE svg PUBLIC "-//W3C//DTD SVG 1.1//EN" "http://www.w3.org/Graphics/SVG/1.1/DTD/svg11.dtd">
<svg width="100%" height="100%" viewBox="0 0 2526 1024" version="1.1" xmlns="http://www.w3.org/2000/svg" xmlns:xlink="http://www.w3.org/1999/xlink" xml:space="preserve" xmlns:serif="http://www.serif.com/" style="fill-rule:evenodd;clip-rule:evenodd;stroke-linejoin:round;stroke-miterlimit:2;">
    <g>
        <path d="M640,1024L960.002,1024C995.324,1024 1024,995.323 1024,960L1024,64C1024,28.677 995.324,-0 960.002,-0L128,-0L128,1024L256,1024L256,-0L320,-0L320,1024L576,1024L576,-0L640,-0L640,1024ZM64,0L64.002,-0L64,-0L64,0C28.679,0 0.002,28.677 0.002,64L0.002,960C0.002,995.323 28.679,1024 64,1024L64,1024L64.002,1024L64,1024L64,0Z" style="fill:white;"/>
    </g>
    <g transform="matrix(11.2589,0,0,11.2589,-10535.7,-2733.07)">
        <path d="M1055.62,246.547C1060.49,246.547 1064.23,247.472 1066.85,249.322C1069.46,251.172 1070.77,253.931 1070.77,257.597C1070.77,259.597 1070.41,261.306 1069.69,262.722C1068.98,264.139 1067.94,265.289 1066.6,266.172C1065.25,267.056 1063.6,267.697 1061.67,268.097C1059.74,268.497 1057.55,268.697 1055.12,268.697L1051.27,268.697L1051.27,281.547L1046.42,281.547L1046.42,247.397C1047.79,247.064 1049.31,246.839 1051,246.722C1052.68,246.606 1054.22,246.547 1055.62,246.547ZM1056.02,250.797C1053.95,250.797 1052.37,250.847 1051.27,250.947L1051.27,264.547L1054.92,264.547C1056.59,264.547 1058.09,264.439 1059.42,264.222C1060.75,264.006 1061.88,263.639 1062.8,263.122C1063.71,262.606 1064.42,261.897 1064.92,260.997C1065.42,260.097 1065.67,258.947 1065.67,257.547C1065.67,256.214 1065.41,255.114 1064.89,254.247C1064.38,253.381 1063.68,252.689 1062.8,252.172C1061.91,251.656 1060.89,251.297 1059.72,251.097C1058.55,250.897 1057.32,250.797 1056.02,250.797Z" style="fill:white;fill-rule:nonzero;"/>
        <path d="M1084.37,278.197C1085.47,278.197 1086.44,278.172 1087.3,278.122C1088.14,278.072 1088.85,277.981 1089.42,277.847L1089.42,270.097C1089.09,269.931 1088.55,269.789 1087.8,269.672C1087.05,269.556 1086.14,269.497 1085.07,269.497C1084.37,269.497 1083.63,269.547 1082.85,269.647C1082.06,269.747 1081.35,269.956 1080.69,270.272C1080.05,270.589 1079.5,271.022 1079.07,271.572C1078.64,272.122 1078.42,272.847 1078.42,273.747C1078.42,275.414 1078.95,276.572 1080.02,277.222C1081.09,277.872 1082.54,278.197 1084.37,278.197ZM1083.97,254.897C1085.84,254.897 1087.41,255.139 1088.69,255.622C1089.98,256.106 1091.01,256.789 1091.8,257.672C1092.58,258.556 1093.14,259.606 1093.47,260.822C1093.8,262.039 1093.97,263.381 1093.97,264.847L1093.97,281.097C1093.57,281.164 1093.01,281.256 1092.3,281.372C1091.58,281.489 1090.77,281.597 1089.87,281.697C1088.97,281.797 1088,281.889 1086.94,281.972C1085.89,282.056 1084.85,282.097 1083.82,282.097C1082.35,282.097 1081,281.947 1079.77,281.647C1078.54,281.347 1077.47,280.872 1076.57,280.222C1075.67,279.572 1074.97,278.714 1074.47,277.647C1073.97,276.581 1073.72,275.297 1073.72,273.797C1073.72,272.364 1074.01,271.131 1074.6,270.097C1075.18,269.064 1075.97,268.231 1076.97,267.597C1077.97,266.964 1079.14,266.497 1080.47,266.197C1081.8,265.897 1083.2,265.747 1084.67,265.747C1085.14,265.747 1085.62,265.772 1086.12,265.822C1086.62,265.872 1087.1,265.939 1087.55,266.022C1088,266.106 1088.39,266.181 1088.72,266.247C1089.05,266.314 1089.29,266.364 1089.42,266.397L1089.42,265.097C1089.42,264.331 1089.34,263.572 1089.17,262.822C1089,262.072 1088.7,261.406 1088.27,260.822C1087.84,260.239 1087.25,259.772 1086.5,259.422C1085.75,259.072 1084.77,258.897 1083.57,258.897C1082.04,258.897 1080.69,259.006 1079.55,259.222C1078.39,259.439 1077.54,259.664 1076.97,259.897L1076.42,256.047C1077.02,255.781 1078.02,255.522 1079.42,255.272C1080.82,255.022 1082.34,254.897 1083.97,254.897Z" style="fill:white;fill-rule:nonzero;"/>
        <path d="M1122.37,280.797C1121.3,281.064 1119.89,281.347 1118.14,281.647C1116.39,281.947 1114.37,282.097 1112.07,282.097C1110.07,282.097 1108.39,281.806 1107.02,281.222C1105.65,280.639 1104.55,279.814 1103.72,278.747C1102.89,277.681 1102.29,276.422 1101.92,274.972C1101.55,273.522 1101.37,271.914 1101.37,270.147L1101.37,255.547L1106.02,255.547L1106.02,269.147C1106.02,272.314 1106.52,274.581 1107.52,275.947C1108.52,277.314 1110.2,277.997 1112.57,277.997C1113.07,277.997 1113.59,277.981 1114.12,277.947C1114.65,277.914 1115.15,277.872 1115.62,277.822C1116.09,277.772 1116.51,277.722 1116.89,277.672C1117.28,277.622 1117.55,277.564 1117.72,277.497L1117.72,255.547L1122.37,255.547L1122.37,280.797Z" style="fill:white;fill-rule:nonzero;"/>
        <path d="M1138.17,282.047C1135.3,281.981 1133.27,281.364 1132.07,280.197C1130.87,279.031 1130.27,277.214 1130.27,274.747L1130.27,243.547L1134.92,242.747L1134.92,273.997C1134.92,274.764 1134.99,275.397 1135.12,275.897C1135.25,276.397 1135.47,276.797 1135.77,277.097C1136.07,277.397 1136.47,277.622 1136.97,277.772C1137.47,277.922 1138.09,278.047 1138.82,278.147L1138.17,282.047Z" style="fill:white;fill-rule:nonzero;"/>
        <path d="M1054.47,329.497C1059.54,329.497 1062.07,327.764 1062.07,324.297C1062.07,323.231 1061.85,322.322 1061.39,321.572C1060.94,320.822 1060.34,320.172 1059.57,319.622C1058.8,319.072 1057.93,318.597 1056.94,318.197C1055.96,317.797 1054.92,317.397 1053.82,316.997C1052.55,316.564 1051.35,316.072 1050.22,315.522C1049.09,314.972 1048.1,314.322 1047.27,313.572C1046.44,312.822 1045.78,311.931 1045.3,310.897C1044.81,309.864 1044.57,308.614 1044.57,307.147C1044.57,304.114 1045.6,301.747 1047.67,300.047C1049.74,298.347 1052.59,297.497 1056.22,297.497C1058.32,297.497 1060.23,297.722 1061.94,298.172C1063.66,298.622 1064.92,299.114 1065.72,299.647L1064.17,303.597C1063.47,303.164 1062.43,302.739 1061.05,302.322C1059.66,301.906 1058.05,301.697 1056.22,301.697C1055.29,301.697 1054.42,301.797 1053.62,301.997C1052.82,302.197 1052.12,302.497 1051.52,302.897C1050.92,303.297 1050.44,303.806 1050.1,304.422C1049.75,305.039 1049.57,305.764 1049.57,306.597C1049.57,307.531 1049.75,308.314 1050.12,308.947C1050.49,309.581 1051,310.139 1051.67,310.622C1052.34,311.106 1053.11,311.547 1054,311.947C1054.88,312.347 1055.85,312.747 1056.92,313.147C1058.42,313.747 1059.8,314.347 1061.05,314.947C1062.3,315.547 1063.38,316.264 1064.3,317.097C1065.21,317.931 1065.92,318.922 1066.42,320.072C1066.92,321.222 1067.17,322.614 1067.17,324.247C1067.17,327.281 1066.06,329.614 1063.85,331.247C1061.63,332.881 1058.5,333.697 1054.47,333.697C1053.1,333.697 1051.85,333.606 1050.69,333.422C1049.55,333.239 1048.52,333.022 1047.62,332.772C1046.72,332.522 1045.94,332.256 1045.3,331.972C1044.64,331.689 1044.14,331.447 1043.77,331.247L1045.22,327.247C1045.99,327.681 1047.15,328.164 1048.72,328.697C1050.29,329.231 1052.2,329.497 1054.47,329.497Z" style="fill:white;fill-rule:nonzero;"/>
        <path d="M1084.02,333.547C1081.92,333.547 1080.08,333.214 1078.5,332.547C1076.91,331.881 1075.58,330.947 1074.5,329.747C1073.41,328.547 1072.6,327.122 1072.07,325.472C1071.54,323.822 1071.27,321.997 1071.27,319.997C1071.27,317.997 1071.56,316.164 1072.14,314.497C1072.73,312.831 1073.55,311.389 1074.62,310.172C1075.69,308.956 1077,308.006 1078.55,307.322C1080.1,306.639 1081.82,306.297 1083.72,306.297C1084.89,306.297 1086.05,306.397 1087.22,306.597C1088.39,306.797 1089.5,307.114 1090.57,307.547L1089.52,311.497C1088.82,311.164 1088.01,310.897 1087.1,310.697C1086.18,310.497 1085.2,310.397 1084.17,310.397C1081.57,310.397 1079.58,311.214 1078.19,312.847C1076.81,314.481 1076.12,316.864 1076.12,319.997C1076.12,321.397 1076.28,322.681 1076.6,323.847C1076.91,325.014 1077.41,326.014 1078.1,326.847C1078.78,327.681 1079.65,328.322 1080.72,328.772C1081.79,329.222 1083.09,329.447 1084.62,329.447C1085.85,329.447 1086.97,329.331 1087.97,329.097C1088.97,328.864 1089.75,328.614 1090.32,328.347L1090.97,332.247C1090.7,332.414 1090.32,332.572 1089.82,332.722C1089.32,332.872 1088.75,333.006 1088.12,333.122C1087.49,333.239 1086.81,333.339 1086.1,333.422C1085.38,333.506 1084.69,333.547 1084.02,333.547Z" style="fill:white;fill-rule:nonzero;"/>
        <path d="M1118.27,319.947C1118.27,322.014 1117.97,323.881 1117.37,325.547C1116.77,327.214 1115.93,328.647 1114.85,329.847C1113.76,331.047 1112.47,331.972 1110.97,332.622C1109.47,333.272 1107.84,333.597 1106.07,333.597C1104.3,333.597 1102.67,333.272 1101.17,332.622C1099.67,331.972 1098.38,331.047 1097.3,329.847C1096.21,328.647 1095.37,327.214 1094.77,325.547C1094.17,323.881 1093.87,322.014 1093.87,319.947C1093.87,317.914 1094.17,316.056 1094.77,314.372C1095.37,312.689 1096.21,311.247 1097.3,310.047C1098.38,308.847 1099.67,307.922 1101.17,307.272C1102.67,306.622 1104.3,306.297 1106.07,306.297C1107.84,306.297 1109.47,306.622 1110.97,307.272C1112.47,307.922 1113.76,308.847 1114.85,310.047C1115.93,311.247 1116.77,312.689 1117.37,314.372C1117.97,316.056 1118.27,317.914 1118.27,319.947ZM1113.42,319.947C1113.42,317.014 1112.76,314.689 1111.44,312.972C1110.13,311.256 1108.34,310.397 1106.07,310.397C1103.8,310.397 1102.01,311.256 1100.69,312.972C1099.38,314.689 1098.72,317.014 1098.72,319.947C1098.72,322.881 1099.38,325.206 1100.69,326.922C1102.01,328.639 1103.8,329.497 1106.07,329.497C1108.34,329.497 1110.13,328.639 1111.44,326.922C1112.76,325.206 1113.42,322.881 1113.42,319.947Z" style="fill:white;fill-rule:nonzero;"/>
        <path d="M1129.17,306.947L1139.02,306.947L1139.02,310.847L1129.17,310.847L1129.17,322.847C1129.17,324.147 1129.27,325.222 1129.47,326.072C1129.67,326.922 1129.97,327.589 1130.37,328.072C1130.77,328.556 1131.27,328.897 1131.87,329.097C1132.47,329.297 1133.17,329.397 1133.97,329.397C1135.37,329.397 1136.5,329.239 1137.35,328.922C1138.19,328.606 1138.79,328.381 1139.12,328.247L1140.02,332.097C1139.55,332.331 1138.74,332.622 1137.57,332.972C1136.4,333.322 1135.07,333.497 1133.57,333.497C1131.8,333.497 1130.35,333.272 1129.19,332.822C1128.05,332.372 1127.12,331.697 1126.42,330.797C1125.72,329.897 1125.23,328.789 1124.94,327.472C1124.66,326.156 1124.52,324.631 1124.52,322.897L1124.52,299.697L1129.17,298.897L1129.17,306.947Z" style="fill:white;fill-rule:nonzero;"/>
        <path d="M1149.27,306.947L1159.12,306.947L1159.12,310.847L1149.27,310.847L1149.27,322.847C1149.27,324.147 1149.37,325.222 1149.57,326.072C1149.77,326.922 1150.07,327.589 1150.47,328.072C1150.87,328.556 1151.37,328.897 1151.97,329.097C1152.57,329.297 1153.27,329.397 1154.07,329.397C1155.47,329.397 1156.6,329.239 1157.44,328.922C1158.3,328.606 1158.89,328.381 1159.22,328.247L1160.12,332.097C1159.65,332.331 1158.84,332.622 1157.67,332.972C1156.5,333.322 1155.17,333.497 1153.67,333.497C1151.9,333.497 1150.44,333.272 1149.3,332.822C1148.14,332.372 1147.22,331.697 1146.52,330.797C1145.82,329.897 1145.33,328.789 1145.05,327.472C1144.76,326.156 1144.62,324.631 1144.62,322.897L1144.62,299.697L1149.27,298.897L1149.27,306.947Z" style="fill:white;fill-rule:nonzero;"/>
    </g>
</svg>
